X: 303
T: Jimmy's Favourite
C:Jim Magill
M:6/8
R:jig
L:1/8
Z:Alf Warnock - alf0@rogers.com
K:G
d|"G"gbg gdB|G2G GAB|"C"cdc cBA|"Am"E3 E2g|"D7"fgf fed|
faf f2e|[1 ded ded|"G"B3 B2:|[2 ded def|"G"g3 g2||
D|"G"GAG GDB,|GDB, GDB,|GAG GAB|"C"c3 c2A|
"D7"FGF FED|FED FED|FGA cBA|"G"G3 G2:|
